X:94
T:Lady Be Good
C:Chris Thile (Thile and Grier, Prism Coffeehouse)
N:TablEdited by Steve Keating
L:1/8
Q:1/4=260
M:4/4
K:G
zD EF GA Bc | "G7"d2 z2 c2 B2 | {^c}"C7"d2 zd B2 (3B=c^c | "G7"dB GD z4 | z4 d2 e2 | 
"Am7"dc AF z4 | "D"z4 B4 | "G7"G8 | "Am7"zD EF "D"GA Bc | "G7"d2 z2 c2 B2 | {^c}"C7"d2 zd B2 (3B=c^c | 
"G7"dB GD z4 | z4 {d}e4 | "Am7"dc AF z4 | "D"z4 zB z2 | "G7"G8 | "C"d/e/e/e/ e/e/e/e/ e/e/e/e/ e/e/e/e/ | 
"Cm7"e/e/e/e/ e/e/e/e/ e2 zc | "G7"ed z6 | z2 zD EF GA | "Em7"B/B/B/B/ B/B/B/B/ B/B/B/B/ e2 | 
e2 B4 BG | "Am7"B2 A6 | {^c}"D"dA FD z4 | "G7"z2 {^c}d2 z=c B2 | {^c}"C7"d2 zd B2 (3B=c^c | 
"G7"dB GD z4 | z2 {f}g4 {^d}e2 | "Am7"z2 {c}d4 {B}c2 | "D"^G/A/z =F/^F/z D^C =CB, | 
"G7"zG F=F Ed ^c=c | Bd eg fd c2 | B2 c^c dB GF | =FC Ec z^D zc | BG z2 zD z^D | 
EB, z2 zB, z^A, | A,2 FA z^G z=G | F2 de zd zc | B2 ga zg zf | ed cB AG FE | Dc/d/ z2 c2 B2 | 
c/d/B GE ^D^d z2 | dB GD z4 | z2 D6 | CE GB ^AG =AB | cE G=F ^Fd e2 | d2 de =fg ac' | 
bc' d'2 d'e' (3=f'e'd' | e'c' g=f ec z^d | zg ^a^d' ag ^d=d | z^c =cG ^AB GE | 
z2 zD EF GA | Be fg ed eg | ab ge ef (3gfe | fd ^de cA GF | (3DFA (3dfa (3d'd'd' (3d'd'd' | 
d'2 ab gd z^d | ec c^d/e/ dc cd | de fe dc ^AB | (3deg f=f eg (3e'e'e' | d'c' z2 zc' zd' | 
(3e'c'g (3ecA E2 zF | G=F D2 ^F2 F2 | FG F2 E=F F2 | D4 z^D zE | zC zA, z^A, zB, | 
GF zE FD A,B, | z8 | zA, CE GB ^AG | AB ce gf dB | af dB ^AG =AG | E=F ^FA c^d ^c=d | 
f^a ^g=a g/=g/z Ag/f/ | fd =fd ed c^A | (3Bc^c dB GF z2 | E/F/^G/A/ B/c/d/=f/ e/d/e/^f/ ^g/e/f/g/ | 
a2 g2 =f^f d^d | (3ecA G/F/E D^D EC | DC A,^A, B,G FA | Gc Bd ce d=f | ed cd (3egc' ge | 
c^c ee ab z2 | zb zb zc' z^c' | zd' ^ab gd eg | bd' be g/e/d'/f'/ d'/f'/d'/g/ | 
z2 zA (3egb (3d'bg | eA (3dfa (3fdB | d'2 d'2 c'2 b2 | c'd' zd' zb zc'/^c'/ | 
d'z/b/ zg d=f'/g'/ e'2 | z4 z=f'/g'/ g'2 | d'e' d'2 a/b/d' (3e'f'b | d'g' f'g' a'g' a'^a' | 
b'g' d'2 ^c'4 | c'4 ^c'4 | g8 | z2 {=f}^fg af d2 | z2 ^de zc ze | d2 ^AB GF =FE | 
z8 | zD zE FG AB | cF zG AB c^c | dB zc de fe | zf gf zg a^a | bg d^c =cG BG | 
EF GE ^DG =FD | DC ^A,B, GF =FE | ^GB d=f ed Bc | dc ^GB AE =G=F | FD ^DE CA, =D^A, | 
B,D (3GFG (3AGA (3BAB | (3cBc (3dcd (3ede (3fef | g2 ec (3Bcd (3ega | ^a2 ge f=a gd | 
eg d^c =cG ^AB | GB de ga bg | bc' d'b ze ga | bg e2 ef ge | BA fg af z2 | de fc z2 Bc | 
dG zD =FG AE | z=F G^D zF G=D | DA, (3B,DB, G2 F=F | E^G Bd =fe dB | cg/a/ za ^ga =ga | 
fa =fa ea ^da | da aa ^ca aa | ca aa ^Aa Ba | aa ^A/B/a aa B/c/b | bb ^cb bb db | 
bb db ad cg | gg ^d/e/c' c'c' =db | bb cb bb Bb | bb Ab bb ^cb | bc bd b^d b=d | 
b^d be bf b2 | gd de =fd ^de | ce ^dc dc =dc | ^AB (3deg (3a^ab (3c'^c'd' | z2 ze ab gg | 
ac' e'c' ag fa | c'a fe df af | d^c =c2 Bd gd | fg af =fg af | ed ce dc BG | ^AG =AG E/^D/G zA | 
DC A,^A, B,G F2 | =F2 E^F ^GB d=f | e^d ef gb eg | be' bg eB dE | DE FA BF AB | 
cd fa bd' zd' | d''d'' d''d'' d''2 d''2 | d''2 d''2 d''2 d''d'' | d''2 d''d'' d''2 z=f | 
fd ed ed Bc | dB G^G A2 a2 | ^g2 =gf zd (3fb^c' | d'd' dd ^dd ^d'd' | e'e' ee =ff =f'f' | 
f'f' ff gg g'g' | g'2 g'2 g'4 | g'8 | 

